X:9744
T:Tombreakachie's Strathspey
B:Wm Marshall Vol 1
C:William Marshall
F:http://richardrobinson.tunebook.org.uk/tune/4013
L:1/8
M:C
O:Scotland
R:Strathspey
Z:Clark Bernst
K:D
%%staves {1 2}
V:1
(B | \
A)>.D A<F EB,B,(B | A)>.D A<F ADAF | \
~G>A B/A/G/F/ EB,B,(B | A)>.D A<F ADD :|
(f | \
d)>.f.d>f eEE(f | d)>.fd>f BdAF | \
G<eF<d Eeeg | f<d!trill!e>c dDD(f |
d)>.fd>f eEE(f | d)>.fd>f BdAF | \
G<eF<d Eeeg | f<d!trill!e>c dDD |]
V:2 clef=bass
L:1/4
z/ | ddee | dddd | gfee | dddd/ :| \
z/ | ddee | ddgf | edcA | dAdd | ddee | ddgf | edcA | dAdd/ |]

